;FLAVOR:Marlin
;TIME:1958
;Filament used: 0.992736m
;Layer height: 0.2
;MINX:83.269
;MINY:93.841
;MINZ:0.2
;MAXX:129.403
;MAXY:126.161
;MAXZ:28.8
;TARGET_MACHINE.NAME:Creality Ender-3
;Generated with Cura_SteamEngine 5.9.0
M140 S50
M105
M190 S50
M104 S190
M105
M109 S190
M82 ;absolute extrusion mode
; Ender 3 Custom Start G-code
G92 E0 ; Reset Extruder
G28 ; Home all axes
G1 Z2.0 F3000 ; Move Z Axis up little to prevent scratching of Heat Bed
G1 X0.1 Y20 Z0.3 F5000.0 ; Move to start position
G1 X0.1 Y200.0 Z0.3 F1500.0 E15 ; Draw the first line
G1 X0.4 Y200.0 Z0.3 F5000.0 ; Move to side a little
G1 X0.4 Y20 Z0.3 F1500.0 E30 ; Draw the second line
G92 E0 ; Reset Extruder
G1 Z2.0 F3000 ; Move Z Axis up little to prevent scratching of Heat Bed
G1 X5 Y20 Z0.3 F5000.0 ; Move over to prevent blob squish
G92 E0
G92 E0
G1 F2700 E-1
;LAYER_COUNT:144
;LAYER:0
M107
M204 S500
M205 X8 Y8
G1 F300 Z0.4
G0 F6000 X112.662 Y125.995 Z0.4
;TYPE:SKIRT
G1 F300 Z0.2
G1 F2700 E0
G1 F1200 X112.258 Y126.046 E0.01354
G1 X111.66 Y126.104 E0.03353
G1 X110.908 Y126.148 E0.05858
G1 X110.156 Y126.161 E0.0836
G1 X109.337 Y126.148 E0.11084
G1 X107.699 Y126.07 E0.16538
G1 X95.13 Y125.236 E0.58435
G1 X94.27 Y125.166 E0.61305
G1 X93.309 Y125.045 E0.64526
G1 X92.513 Y124.879 E0.67231
G1 X91.527 Y124.604 E0.70635
G1 X90.681 Y124.287 E0.7364
G1 X89.921 Y123.932 E0.7643
G1 X89.629 Y123.781 E0.77523
G1 X88.787 Y123.294 E0.80759
G1 X87.992 Y122.737 E0.83987
G1 X87.263 Y122.131 E0.8714
G1 X86.449 Y121.325 E0.9095
G1 X85.822 Y120.579 E0.94191
G1 X85.285 Y119.815 E0.97297
G1 X84.774 Y118.952 E1.00633
G1 X84.36 Y118.149 E1.03638
G1 X83.967 Y117.182 E1.0711
G1 X83.685 Y116.26 E1.10317
G1 X83.534 Y115.594 E1.12588
G1 X83.472 Y115.268 E1.13692
G1 X83.341 Y114.374 E1.16697
G1 X83.285 Y113.564 E1.19397
G1 X83.269 Y112.875 E1.2169
G1 X83.27 Y107.265 E1.40349
G1 X83.28 Y106.664 E1.42348
G1 X83.374 Y105.421 E1.46494
G1 X83.428 Y105.031 E1.47803
G1 X83.607 Y104.073 E1.51045
G1 X83.868 Y103.139 E1.5427
G1 X84.171 Y102.323 E1.57165
G1 X84.328 Y101.949 E1.58514
G1 X84.746 Y101.068 E1.61758
G1 X85.24 Y100.231 E1.6499
G1 X85.788 Y99.462 E1.68131
G1 X86.597 Y98.535 E1.72223
G1 X86.84 Y98.288 E1.73376
G1 X87.553 Y97.624 E1.76616
G1 X88.3 Y97.042 E1.79766
G1 X89.443 Y96.329 E1.84246
G1 X89.796 Y96.139 E1.8558
G1 X90.643 Y95.733 E1.88704
G1 X91.586 Y95.379 E1.92054
G1 X92.621 Y95.093 E1.95625
G1 X93.669 Y94.898 E1.99171
G1 X94.273 Y94.832 E2.01192
G1 X95.04 Y94.771 E2.03751
G1 X108.717 Y93.875 E2.49338
G1 X109.275 Y93.854 E2.51196
G1 X110.338 Y93.841 E2.54731
G1 X111.367 Y93.878 E2.58156
G1 X112.052 Y93.936 E2.60443
G1 X112.627 Y94.002 E2.62368
G1 X113.164 Y94.077 E2.64171
G1 X113.858 Y94.196 E2.66513
G1 X114.582 Y94.347 E2.68973
G1 X115.373 Y94.544 E2.71684
G1 X115.953 Y94.711 E2.73691
G1 X116.48 Y94.878 E2.7553
G1 X117.618 Y95.291 E2.79557
G1 X118.239 Y95.549 E2.81793
G1 X119.028 Y95.914 E2.84685
G1 X119.936 Y96.382 E2.88082
G1 X120.63 Y96.78 E2.90743
G1 X121.013 Y97.015 E2.92238
G1 X121.67 Y97.455 E2.94868
G1 X122.379 Y97.966 E2.97774
G1 X122.913 Y98.378 E3.00018
G1 X123.315 Y98.709 E3.0175
G1 X123.777 Y99.111 E3.03787
G1 X124.136 Y99.443 E3.05413
G1 X124.663 Y99.965 E3.0788
G1 X125.23 Y100.566 E3.10628
G1 X125.688 Y101.086 E3.12933
G1 X126.092 Y101.574 E3.1504
G1 X126.503 Y102.1 E3.1726
G1 X126.909 Y102.67 E3.19588
G1 X127.413 Y103.434 E3.22632
G1 X127.766 Y104 E3.24851
G1 X128.232 Y104.854 E3.28086
G1 X128.622 Y105.746 E3.31324
G1 X128.934 Y106.678 E3.34593
G1 X129.188 Y107.781 E3.38358
G1 X129.241 Y108.082 E3.39375
G1 X129.365 Y109.048 E3.42614
G1 X129.403 Y109.95 E3.45617
G1 X129.307 Y111.407 E3.50473
G1 X129.254 Y111.803 E3.51802
G1 X129.078 Y112.762 E3.55045
G1 X128.817 Y113.699 E3.5828
G1 X128.469 Y114.623 E3.61564
G1 X127.894 Y115.776 E3.65849
G1 X127.495 Y116.444 E3.68437
G1 X127.234 Y116.853 E3.70051
G1 X126.87 Y117.384 E3.72192
G1 X126.454 Y117.956 E3.74545
G1 X126.074 Y118.446 E3.76607
G1 X125.635 Y118.979 E3.78904
G1 X125.193 Y119.487 E3.81143
G1 X124.823 Y119.88 E3.82938
G1 X124.232 Y120.465 E3.85704
G1 X123.846 Y120.824 E3.87458
G1 X123.32 Y121.281 E3.89775
G1 X122.526 Y121.918 E3.93161
G1 X121.745 Y122.487 E3.96375
G1 X121.146 Y122.892 E3.9878
G1 X120.209 Y123.457 E4.02419
G1 X119.326 Y123.932 E4.05754
G1 X118.76 Y124.214 E4.07857
G1 X117.918 Y124.587 E4.1092
G1 X117.346 Y124.815 E4.12968
G1 X116.75 Y125.035 E4.15081
G1 X116.276 Y125.192 E4.16742
G1 X115.424 Y125.443 E4.19696
G1 X114.901 Y125.575 E4.2149
G1 X114.222 Y125.729 E4.23806
G1 X113.538 Y125.859 E4.26121
G1 X112.662 Y125.995 E4.2907
G0 F6000 X112.612 Y125.598
G1 F1200 X112.219 Y125.648 E4.30388
G1 X111.637 Y125.705 E4.32333
G1 X110.901 Y125.748 E4.34785
G1 X110.162 Y125.761 E4.37243
G1 X109.356 Y125.748 E4.39924
G1 X107.725 Y125.671 E4.45355
G1 X95.162 Y124.837 E4.87232
G1 X94.32 Y124.769 E4.90041
G1 X93.391 Y124.653 E4.93155
G1 X92.595 Y124.487 E4.9586
G1 X91.667 Y124.229 E4.99063
G1 X90.821 Y123.912 E5.02068
G1 X90.105 Y123.577 E5.04697
G1 X89.829 Y123.434 E5.05731
G1 X89.016 Y122.966 E5.08851
G1 X88.248 Y122.429 E5.11968
G1 X87.519 Y121.823 E5.15121
G1 X86.755 Y121.067 E5.18696
G1 X86.149 Y120.349 E5.21821
G1 X85.612 Y119.585 E5.24927
G1 X85.13 Y118.769 E5.28079
G1 X84.716 Y117.966 E5.31084
G1 X84.349 Y117.065 E5.3432
G1 X84.075 Y116.172 E5.37426
G1 X83.927 Y115.519 E5.39653
G1 X83.868 Y115.21 E5.407
G1 X83.737 Y114.316 E5.43705
G1 X83.685 Y113.555 E5.46242
G1 X83.669 Y112.875 E5.48504
G1 X83.67 Y107.271 E5.67143
G1 X83.679 Y106.694 E5.69063
G1 X83.773 Y105.451 E5.73209
G1 X83.821 Y105.104 E5.74374
G1 X83.992 Y104.18 E5.77499
G1 X84.243 Y103.278 E5.80613
G1 X84.54 Y102.478 E5.83451
G1 X84.69 Y102.12 E5.84742
G1 X85.091 Y101.271 E5.87865
G1 X85.566 Y100.463 E5.90983
G1 X86.114 Y99.694 E5.94123
G1 X86.882 Y98.815 E5.98006
G1 X87.113 Y98.58 E5.99102
G1 X87.799 Y97.94 E6.02222
G1 X88.546 Y97.358 E6.05372
G1 X89.654 Y96.669 E6.09711
G1 X89.969 Y96.5 E6.109
G1 X90.816 Y96.094 E6.14024
G1 X91.693 Y95.764 E6.17141
G1 X92.694 Y95.486 E6.20596
G1 X93.713 Y95.296 E6.24044
G1 X94.305 Y95.231 E6.26025
G1 X95.066 Y95.17 E6.28564
G1 X108.732 Y94.275 E6.74115
G1 X109.28 Y94.254 E6.75939
G1 X110.324 Y94.241 E6.79411
G1 X111.333 Y94.277 E6.82769
G1 X112.018 Y94.335 E6.85056
G1 X112.572 Y94.398 E6.8691
G1 X113.096 Y94.471 E6.8867
G1 X113.776 Y94.588 E6.90965
G1 X114.5 Y94.739 E6.93425
G1 X115.262 Y94.928 E6.96036
G1 X115.832 Y95.092 E6.98009
G1 X116.347 Y95.255 E6.99805
G1 X116.971 Y95.475 E7.02006
G1 X117.465 Y95.661 E7.03762
G1 X118.071 Y95.912 E7.05943
G1 X118.845 Y96.27 E7.0878
G1 X119.737 Y96.729 E7.12116
G1 X120.421 Y97.121 E7.14738
G1 X120.791 Y97.348 E7.16182
G1 X121.436 Y97.779 E7.18762
G1 X122.135 Y98.283 E7.21628
G1 X122.659 Y98.687 E7.23829
G1 X123.052 Y99.01 E7.25521
G1 X123.505 Y99.405 E7.2752
G1 X123.864 Y99.737 E7.29146
G1 X124.372 Y100.24 E7.31524
G1 X124.93 Y100.831 E7.34228
G1 X125.38 Y101.341 E7.3649
G1 X125.777 Y101.82 E7.38559
G1 X126.177 Y102.332 E7.4072
G1 X126.575 Y102.891 E7.43002
G1 X127.074 Y103.646 E7.46012
G1 X127.415 Y104.192 E7.48153
G1 X127.866 Y105.015 E7.51275
G1 X128.243 Y105.874 E7.54395
G1 X128.544 Y106.768 E7.57532
G1 X128.794 Y107.85 E7.61226
G1 X128.844 Y108.134 E7.62185
G1 X128.965 Y109.065 E7.65308
G1 X129.003 Y109.967 E7.6831
G1 X128.91 Y111.354 E7.72934
G1 X128.86 Y111.731 E7.74199
G1 X128.692 Y112.655 E7.77322
G1 X128.442 Y113.559 E7.80442
G1 X128.111 Y114.444 E7.83585
G1 X127.536 Y115.597 E7.8787
G1 X127.158 Y116.229 E7.90319
G1 X126.904 Y116.627 E7.9189
G1 X126.547 Y117.149 E7.93993
G1 X126.138 Y117.711 E7.96305
G1 X125.765 Y118.192 E7.98329
G1 X125.333 Y118.717 E8.00591
G1 X124.902 Y119.213 E8.02776
G1 X124.541 Y119.596 E8.04527
G1 X123.96 Y120.172 E8.07248
G1 X123.583 Y120.522 E8.08959
G1 X123.07 Y120.969 E8.11222
G1 X122.29 Y121.595 E8.14548
G1 X121.521 Y122.156 E8.17714
G1 X120.939 Y122.55 E8.20052
G1 X120.02 Y123.105 E8.23623
G1 X119.147 Y123.574 E8.26919
G1 X118.598 Y123.848 E8.2896
G1 X117.756 Y124.221 E8.32023
G1 X117.208 Y124.44 E8.33985
G1 X116.624 Y124.655 E8.36055
G1 X116.163 Y124.808 E8.37671
G1 X115.326 Y125.055 E8.40573
G1 X114.812 Y125.185 E8.42337
G1 X114.147 Y125.336 E8.44605
G1 X113.477 Y125.464 E8.46873
G1 X112.612 Y125.598 E8.49785
G0 F6000 X112.561 Y125.201
G1 F1200 X112.18 Y125.25 E8.51062
G1 X111.614 Y125.306 E8.52954
G1 X110.894 Y125.348 E8.55353
G1 X110.169 Y125.361 E8.57765
G1 X109.375 Y125.348 E8.60406
G1 X107.752 Y125.272 E8.6581
G1 X95.194 Y124.438 E9.0767
G1 X94.369 Y124.372 E9.10423
G1 X93.473 Y124.261 E9.13426
G1 X92.677 Y124.095 E9.1613
G1 X91.807 Y123.854 E9.19133
G1 X90.961 Y123.537 E9.22138
G1 X90.288 Y123.221 E9.2461
G1 X90.028 Y123.087 E9.25583
G1 X89.245 Y122.638 E9.28585
G1 X88.504 Y122.121 E9.31591
G1 X87.775 Y121.515 E9.34744
G1 X87.06 Y120.808 E9.38088
G1 X86.476 Y120.119 E9.41092
G1 X85.956 Y119.381 E9.44095
G1 X85.486 Y118.586 E9.47166
G1 X85.072 Y117.783 E9.50171
G1 X84.731 Y116.947 E9.53174
G1 X84.465 Y116.084 E9.56178
G1 X84.32 Y115.443 E9.58364
G1 X84.264 Y115.152 E9.59349
G1 X84.133 Y114.258 E9.62355
G1 X84.085 Y113.545 E9.64731
G1 X84.069 Y112.875 E9.6696
G1 X84.07 Y107.277 E9.85579
G1 X84.078 Y106.724 E9.87419
G1 X84.172 Y105.481 E9.91565
G1 X84.214 Y105.176 E9.92589
G1 X84.377 Y104.287 E9.95595
G1 X84.618 Y103.417 E9.98598
G1 X84.909 Y102.632 E10.01382
G1 X85.052 Y102.29 E10.02615
G1 X85.436 Y101.473 E10.05618
G1 X85.892 Y100.694 E10.0862
G1 X86.415 Y99.957 E10.11626
G1 X87.168 Y99.095 E10.15433
G1 X87.386 Y98.872 E10.1647
G1 X88.045 Y98.255 E10.19472
G1 X88.757 Y97.698 E10.22479
G1 X89.844 Y97.021 E10.26738
G1 X90.143 Y96.86 E10.27868
G1 X90.957 Y96.468 E10.30873
G1 X91.801 Y96.149 E10.33874
G1 X92.768 Y95.879 E10.37213
G1 X93.757 Y95.694 E10.40559
G1 X94.337 Y95.63 E10.425
G1 X95.092 Y95.569 E10.4502
G1 X108.748 Y94.675 E10.90537
G1 X109.285 Y94.654 E10.92324
G1 X110.31 Y94.641 E10.95734
G1 X111.299 Y94.676 E10.99025
G1 X111.973 Y94.733 E11.01275
G1 X112.517 Y94.794 E11.03096
G1 X113.028 Y94.865 E11.04812
G1 X113.695 Y94.98 E11.07063
G1 X114.404 Y95.127 E11.09471
G1 X115.151 Y95.312 E11.12031
G1 X115.711 Y95.473 E11.13969
G1 X116.214 Y95.632 E11.15723
G1 X116.83 Y95.849 E11.17895
G1 X117.312 Y96.031 E11.19609
G1 X117.903 Y96.275 E11.21736
G1 X118.662 Y96.626 E11.24517
G1 X119.538 Y97.076 E11.27793
G1 X120.212 Y97.462 E11.30376
G1 X120.569 Y97.681 E11.31769
G1 X121.202 Y98.103 E11.34299
G1 X121.891 Y98.6 E11.37125
G1 X122.405 Y98.996 E11.39283
G1 X122.789 Y99.312 E11.40937
G1 X123.233 Y99.699 E11.42896
G1 X123.592 Y100.031 E11.44522
G1 X124.081 Y100.515 E11.46811
G1 X124.63 Y101.096 E11.49469
G1 X125.072 Y101.596 E11.51689
G1 X125.462 Y102.067 E11.53723
G1 X125.851 Y102.564 E11.55822
G1 X126.241 Y103.112 E11.58059
G1 X126.735 Y103.858 E11.61035
G1 X127.065 Y104.385 E11.63103
G1 X127.5 Y105.176 E11.66106
G1 X127.864 Y106.002 E11.69108
G1 X128.154 Y106.858 E11.72114
G1 X128.4 Y107.92 E11.7574
G1 X128.447 Y108.186 E11.76638
G1 X128.565 Y109.082 E11.79644
G1 X128.603 Y109.984 E11.82647
G1 X128.511 Y111.327 E11.87124
G1 X128.466 Y111.66 E11.88241
G1 X128.306 Y112.549 E11.91246
G1 X128.067 Y113.42 E11.9425
G1 X127.753 Y114.266 E11.97251
G1 X127.192 Y115.392 E12.01435
G1 X126.821 Y116.014 E12.03844
G1 X126.573 Y116.402 E12.05376
G1 X126.224 Y116.914 E12.07437
G1 X125.822 Y117.466 E12.09708
G1 X125.456 Y117.938 E12.11694
G1 X125.031 Y118.455 E12.1392
G1 X124.611 Y118.939 E12.16052
G1 X124.26 Y119.312 E12.17755
G1 X123.687 Y119.879 E12.20437
G1 X123.32 Y120.221 E12.22105
G1 X122.82 Y120.657 E12.24311
G1 X122.054 Y121.272 E12.27579
G1 X121.297 Y121.825 E12.30697
G1 X120.732 Y122.208 E12.32967
G1 X119.831 Y122.753 E12.36469
G1 X118.968 Y123.216 E12.39727
G1 X118.436 Y123.482 E12.41705
G1 X117.607 Y123.85 E12.44722
G1 X117.07 Y124.065 E12.46646
G1 X116.498 Y124.275 E12.48672
G1 X116.05 Y124.424 E12.50243
G1 X115.228 Y124.667 E12.53094
G1 X114.723 Y124.795 E12.54826
G1 X114.071 Y124.943 E12.5705
G1 X113.416 Y125.069 E12.59268
G1 X112.561 Y125.201 E12.62146
G1 F2700 E11.62146
G1 F300 Z0.4
;MESH:3DBenchy.stl
G0 F6000 X105.848 Y110.551 Z0.4
;TYPE:WALL-INNER
G1 F300 Z0.2
G1 F2700 E12.62146
G1 F1391.3 X106.016 Y110.524 E12.62634
G1 X106.146 Y110.384 E12.63182
G1 X106.192 Y110.148 E12.63872
G1 F1387.3 X106.196 Y109.798 E12.64879
G1 F1379.3 X106.132 Y109.534 E12.65665
G1 X106.057 Y109.441 E12.66011
G1 X105.848 Y109.41 E12.66622
G1 F1387.3 X105.848 Y110.551 E12.69905
G0 F6000 X105.478 Y110.93
;TYPE:WALL-OUTER
G1 F1200 X105.965 Y110.92 E12.71525
G1 X106.177 Y110.867 E12.72252
G1 X106.371 Y110.725 E12.73051
G1 X106.498 Y110.524 E12.73842
G1 X106.564 Y110.187 E12.74984
G1 X106.571 Y109.755 E12.76421
G1 X106.483 Y109.4 E12.77638
G1 X106.394 Y109.231 E12.78273
G1 X106.218 Y109.091 E12.79021
G1 X105.955 Y109.04 E12.79912
G1 X105.473 Y109.018 E12.81517
G1 X105.478 Y110.93 E12.87876
G1 F2700 E11.87876
G1 F300 Z0.4
G0 F6000 X104.136 Y109.683 Z0.4
;TYPE:WALL-INNER
G1 F300 Z0.2
G1 F2700 E12.87876
G1 F1311.5 X104.068 Y109.644 E12.88115
G1 X104.069 Y109.722 E12.88352
G1 X104.136 Y109.683 E12.88588
G1 F2700 E11.88588
G1 F300 Z0.4
G0 F6000 X108.973 Y110.438 Z0.4
G1 F300 Z0.2
G1 F2700 E12.88588
G1 F833.3 X108.616 Y109.815 E12.92027
G1 F872.7 X108.514 Y109.257 E12.94621
G1 F971.7 X108.823 Y108.751 E12.97057
G1 F1113.7 X109.043 Y108.606 E12.98001
G1 F1200 X109.368 Y108.504 E12.99134
G1 X109.664 Y108.508 E13.00118
G1 X109.936 Y108.624 E13.01102
G1 X110.121 Y108.786 E13.0192
G1 X110.316 Y108.61 E13.02793
G1 X110.588 Y108.511 E13.03756
G1 X110.959 Y108.507 E13.0499
G1 X111.258 Y108.689 E13.06154
G1 X111.532 Y108.53 E13.07208
G1 X111.916 Y108.496 E13.0849
G1 X112.142 Y108.523 E13.09247
G1 X112.53 Y108.733 E13.10715
G1 X112.681 Y108.943 E13.11575
G1 X112.727 Y109.056 E13.11981
G1 X112.922 Y108.739 E13.13219
G1 X113.31 Y108.494 E13.14745
G1 X113.534 Y108.463 E13.15497
G1 X113.775 Y108.504 E13.1631
G1 X114.053 Y108.701 E13.17443
G1 X114.197 Y108.611 E13.18008
G1 X114.549 Y108.484 E13.19253
G1 X116.014 Y108.488 E13.24125
G1 X116.321 Y108.544 E13.25163
G1 X115.844 Y108.051 E13.27445
G1 X115.355 Y107.616 E13.29622
G1 X115.017 Y107.353 E13.31046
G1 X114.525 Y107.012 E13.33037
G1 X113.961 Y106.69 E13.35197
G1 X113.514 Y106.466 E13.3686
G1 X112.861 Y106.195 E13.39212
G1 X112.188 Y105.993 E13.41549
G1 X111.73 Y105.884 E13.43115
G1 X111.36 Y105.818 E13.44365
G1 X110.869 Y105.754 E13.46012
G1 X110.274 Y105.715 E13.47995
G1 X109.995 Y105.709 E13.48923
G1 X109.576 Y105.721 E13.50317
G1 X95.481 Y106.586 E13.97285
G1 X95.248 Y106.666 E13.98105
G1 X95.139 Y106.77 E13.98606
G1 X95.06 Y106.965 E13.99306
G1 X95.059 Y108.145 E14.0323
G1 X95.221 Y107.989 E14.03978
G1 X95.61 Y107.728 E14.05536
G1 X96.169 Y107.53 E14.07509
G1 X96.86 Y107.523 E14.09807
G1 X97.303 Y107.651 E14.11341
G1 X97.637 Y107.825 E14.12594
G1 X97.818 Y107.973 E14.13371
G1 X97.86 Y107.902 E14.13646
G1 X98.174 Y107.688 E14.14909
G1 X98.411 Y107.59 E14.15762
G1 X98.9 Y107.632 E14.17395
G1 X100.861 Y107.624 E14.23917
G1 X101.307 Y107.756 E14.25464
G1 X101.502 Y107.889 E14.26249
G1 X101.918 Y107.632 E14.27876
G1 X102.474 Y107.524 E14.29759
G1 X102.955 Y107.524 E14.31359
G1 X103.486 Y107.663 E14.33185
G1 X103.869 Y107.935 E14.34747
G1 X104.093 Y108.209 E14.35924
G1 X104.122 Y108.099 E14.36303
G1 X104.287 Y107.863 E14.37261
G1 X104.772 Y107.616 E14.39071
G1 X105.816 Y107.629 E14.42543
G1 X106.187 Y107.657 E14.43781
G1 X106.631 Y107.737 E14.45281
G1 X106.849 Y107.823 E14.46061
G1 X107.182 Y108.037 E14.47377
G1 X107.452 Y108.306 E14.48645
G1 X107.651 Y108.597 E14.49818
G1 F1012.7 X107.986 Y109.318 E14.52951
G1 F863.3 X108.052 Y109.796 E14.55182
G1 F843.6 X108.052 Y110.138 E14.568
G1 F833.3 X108.444 Y110.191 E14.58695
G1 X108.634 Y110.27 E14.5968
G1 X108.946 Y110.482 E14.61487
G1 X108.973 Y110.438 E14.61734
G1 F2700 E13.61734
G1 F300 Z0.4
G0 F6000 X111.225 Y110.419 Z0.4
G1 F300 Z0.2
G1 F2700 E14.61734
G1 F864.9 X111.567 Y111.14 E14.65417
G1 F890.5 X111.709 Y111.616 E14.67643
G1 F866.4 X111.547 Y112.121 E14.70086
G1 F1083.5 X111.11 Y112.359 E14.71919
G1 F2700 E13.71919
G1 F300 Z0.4
G0 F6000 X111.706 Y114.044 Z0.4
G1 F300 Z0.2
G1 F2700 E14.71919
G1 F895.5 X112.298 Y113.907 E14.74627
